X:1
T:Gill Morice
M:6/8
L:1/4
K:F
 F/2| A c/2 c f/2| d- f/2 c A/2| F A/2 c c/2| A3/2 c f/2| d G/2 G G/2|\
 d- d/2 c c/2| A G/2 F F/2| A3/2 c||
